icon-themes/colibre_svg/cmd/sc_mailmergecreatedocuments.svg

<svg viewBox="0 0 16 16" xmlns="http://www.w3.org/2000/svg"><path d="m1 1v14h5.2167969l.59375-2.408203c1.3976476-1.396391 2.7934481-2.7855466 4.1894531-4.1757814v-7.4160156z" fill="#fff"/><path d="m1 0c-.554 0-1 .446-1 1v14c0 .554.446 1 1 1h4.9707031l.2460938-1h-5.2167969v-14h10v7.4160156c.333437-.332059.666563-.6669224 1-.9980468v-6.4179688c0-.554-.446-1-1-1z" fill="#808080"/><path d="m14.066406 7c-.142171 0-.283638.0533017-.392578.1621094l-1.255859 1.2539062 2.134765 2.1367184 1.283204-1.2304684c.21788-.2175952.21788-.5675602 0-.7851562l-1.376954-1.375c-.108941-.108798-.250406-.1621094-.392578-.1621094zm-2.205078 1.9589844-4.1464842 4.1425776-.7148438 2.898438 2.8554688-.757812 4.1328122-4.160157z" fill="#eac282"/></svg>

<svg viewBox="0 0 16 16" xmlns="http://www.w3.org/2000/svg">
  <path
     style="fill:#ffffff"
     d="M 1 1 L 1 15 L 6.2167969 15 L 6.8105469 12.591797 C 8.2081945 11.195406 9.603995 9.8062504 11 8.4160156 L 11 1 L 1 1 z "
     />
  <path
     style="fill:#808080"
     d="M 1 0 C 0.446 0 0 0.446 0 1 L 0 15 C 0 15.554 0.446 16 1 16 L 5.9707031 16 L 6.2167969 15 L 1 15 L 1 1 L 11 1 L 11 8.4160156 C 11.333437 8.0839566 11.666563 7.7490932 12 7.4179688 L 12 1 C 12 0.446 11.554 0 11 0 L 1 0 z "
     />
  <path
     style="fill:#eac282"
     d="M 14.066406 7 C 13.924235 7 13.782768 7.0533017 13.673828 7.1621094 L 12.417969 8.4160156 L 14.552734 10.552734 L 15.835938 9.3222656 C 16.053818 9.1046704 16.053818 8.7547054 15.835938 8.5371094 L 14.458984 7.1621094 C 14.350043 7.0533114 14.208578 7 14.066406 7 z M 11.861328 8.9589844 L 7.7148438 13.101562 L 7 16 L 9.8554688 15.242188 L 13.988281 11.082031 L 11.861328 8.9589844 z "
     />
</svg>
